material/.icons/material/file-cloud.svg

<svg xmlns="http://www.w3.org/2000/svg" viewBox="0 0 24 24"><path d="M13 9h5.5L13 3.5V9M6 2h8l6 6v12a2 2 0 01-2 2H6a2 2 0 01-2-2V4c0-1.11.89-2 2-2m9.68 13a3.758 3.758 0 00-7-1A3.028 3.028 0 006 17a3 3 0 003 3h6.5a2.5 2.5 0 002.5-2.5c0-1.32-1.03-2.39-2.32-2.5z"/></svg>

<?xml version="1.0" encoding="UTF-8"?><!DOCTYPE svg PUBLIC "-//W3C//DTD SVG 1.1//EN" "http://www.w3.org/Graphics/SVG/1.1/DTD/svg11.dtd"><svg xmlns="http://www.w3.org/2000/svg" xmlns:xlink="http://www.w3.org/1999/xlink" version="1.1" id="mdi-file-cloud" width="24" height="24" viewBox="0 0 24 24"><path d="M13,9H18.5L13,3.5V9M6,2H14L20,8V20A2,2 0 0,1 18,22H6C4.89,22 4,21.1 4,20V4C4,2.89 4.89,2 6,2M15.68,15C15.34,13.3 13.82,12 12,12C10.55,12 9.3,12.82 8.68,14C7.17,14.18 6,15.45 6,17A3,3 0 0,0 9,20H15.5A2.5,2.5 0 0,0 18,17.5C18,16.18 16.97,15.11 15.68,15Z" /></svg>
